src/data/icons/wallet.svg

<?xml version="1.0" encoding="UTF-8"?>
<svg width="18px" height="21px" viewBox="0 0 18 21" version="1.1" xmlns="http://www.w3.org/2000/svg" xmlns:xlink="http://www.w3.org/1999/xlink">
    <title>Shape</title>
    <g id="🚀-02-Home" stroke="none" stroke-width="1" fill="none" fill-rule="evenodd">
        <g id="wallfair-home-mobile-01-A" transform="translate(-270.000000, -83.000000)" fill="#FFFFFF" fill-rule="nonzero">
            <g id="Group-4" transform="translate(230.000000, 54.000000)">
                <g id="Cart-Alt.1" transform="translate(40.000000, 29.000000)">
                    <path d="M1.18285714,4.31951561 L1.8,4.78049122 L1.8,4.78049122 L1.18285714,4.31951561 Z M3.54857143,1.17804878 L2.93142857,0.717073171 L2.93142857,0.717073171 L3.54857143,1.17804878 Z M14.4514286,1.17804878 L13.8342857,1.63902439 L13.8342857,1.63902439 L14.4514286,1.17804878 Z M16.8171429,4.31951561 L17.4342857,3.85854 L17.4342857,3.85854 L16.8171429,4.31951561 Z M12.8571429,8.96341463 C12.8571429,8.53910195 12.5117486,8.19512195 12.0857143,8.19512195 C11.65968,8.19512195 11.3142857,8.53910195 11.3142857,8.96341463 L12.8571429,8.96341463 Z M6.68571429,8.96341463 C6.68571429,8.53910195 6.34032,8.19512195 5.91428571,8.19512195 C5.48824114,8.19512195 5.14285714,8.53910195 5.14285714,8.96341463 L6.68571429,8.96341463 Z M16.4571429,5.5487839 L16.4571429,18.1828961 L18,18.1828961 L18,5.5487839 L16.4571429,5.5487839 Z M15.1714286,19.4633839 L2.82857143,19.4633839 L2.82857143,20.9999693 L15.1714286,20.9999693 L15.1714286,19.4633839 Z M1.54285714,18.1828961 L1.54285714,5.5487839 L0,5.5487839 L0,18.1828961 L1.54285714,18.1828961 Z M1.8,4.78049122 L4.16571429,1.63902439 L2.93142857,0.717073171 L0.565714286,3.85854 L1.8,4.78049122 L1.8,4.78049122 Z M4.37142857,1.53658537 L13.6285714,1.53658537 L13.6285714,0 L4.37142857,0 L4.37142857,1.53658537 Z M13.8342857,1.63902439 L16.2,4.78049122 L17.4342857,3.85854 L15.0685714,0.717073171 L13.8342857,1.63902439 Z M13.6285714,1.53658537 C13.70952,1.53658537 13.7857371,1.57453902 13.8342857,1.63902439 L15.0685714,0.717073171 C14.7286286,0.265665366 14.1951086,2.22044605e-16 13.6285714,2.22044605e-16 L13.6285714,1.53658537 Z M4.16571429,1.63902439 C4.21427314,1.57453902 4.29049029,1.53658537 4.37142857,1.53658537 L4.37142857,0 C3.80486057,0 3.27137143,0.265665366 2.93142857,0.717073171 L4.16571429,1.63902439 L4.16571429,1.63902439 Z M2.82857143,19.4634146 C2.11848686,19.4634146 1.54285714,18.8901659 1.54285714,18.1829268 L8.8817842e-16,18.1829268 C8.8817842e-16,19.7387707 1.26639771,21 2.82857143,21 L2.82857143,19.4634146 Z M16.4571429,18.1829268 C16.4571429,18.8901659 15.8815543,19.4634146 15.1714286,19.4634146 L15.1714286,21 C16.7336229,21 18,19.7387707 18,18.1829268 L16.4571429,18.1829268 Z M18,5.54881463 C18,4.93928195 17.8014857,4.34619073 17.4342857,3.85857073 L16.2,4.78052195 C16.3669371,5.00216927 16.4571429,5.2717478 16.4571429,5.54881463 L18,5.54881463 Z M1.54285714,5.54881463 C1.54285714,5.2717478 1.63308343,5.00216927 1.8,4.78052195 L0.565714286,3.85857073 C0.198504,4.34619073 0,4.93928195 0,5.54881463 L1.54285714,5.54881463 Z M0.889076571,5.63417707 L17.1108823,5.63417707 L17.1108823,4.09759171 L0.889076571,4.09759171 L0.889076571,5.63417707 Z M11.3142651,8.96344537 C11.3142651,10.2363527 10.2780823,11.2683234 8.99997943,11.2683234 L8.99997943,12.8049088 C11.1302537,12.8049088 12.8571223,11.08506 12.8571223,8.96344537 L11.3142651,8.96344537 Z M8.99997943,11.2683234 C7.72187657,11.2683234 6.68569371,10.2363527 6.68569371,8.96344537 L5.14283657,8.96344537 C5.14283657,11.08506 6.86970514,12.8049088 8.99997943,12.8049088 L8.99997943,11.2683234 Z" id="Shape"></path>
                </g>
            </g>
        </g>
    </g>
</svg>

<svg width="18" height="21" xmlns="http://www.w3.org/2000/svg"><path d="M1.183 4.32l.617.46-.617-.46zm2.366-3.142L2.93.718l.618.46zm10.902 0l-.617.461.617-.461zm2.366 3.142l.617-.461-.617.46zm-3.96 4.643a.77.77 0 00-.771-.768.77.77 0 00-.772.768h1.543zm-6.171 0a.77.77 0 00-.772-.768.77.77 0 00-.771.768h1.543zm9.771-3.414v12.634H18V5.549h-1.543zm-1.286 13.914H2.83V21H15.17v-1.537zm-13.628-1.28V5.549H0v12.634h1.543zM1.8 4.78L4.166 1.64 2.93.717.566 3.86 1.8 4.78zm2.571-3.243h9.258V0H4.37v1.537zm9.463.102L16.2 4.78l1.234-.921L15.07.717l-1.235.922zm-.205-.102c.08 0 .157.038.205.102L15.07.717A1.803 1.803 0 0013.629 0v1.537zm-9.463.102a.257.257 0 01.205-.102V0c-.566 0-1.1.266-1.44.717l1.235.922zM2.829 19.463c-.71 0-1.286-.573-1.286-1.28H0A2.823 2.823 0 002.829 21v-1.537zm13.628-1.28c0 .707-.575 1.28-1.286 1.28V21A2.823 2.823 0 0018 18.183h-1.543zM18 5.549a2.81 2.81 0 00-.566-1.69L16.2 4.78c.167.221.257.49.257.768H18zm-16.457 0c0-.277.09-.547.257-.768L.566 3.859A2.81 2.81 0 000 5.549h1.543zm-.654.085h16.222V4.098H.889v1.536zm10.425 3.33A2.31 2.31 0 019 11.267v1.537a3.85 3.85 0 003.857-3.842h-1.543zM9 11.267a2.31 2.31 0 01-2.314-2.305H5.143A3.85 3.85 0 009 12.805v-1.537z" fill="#FFF" fill-rule="nonzero"/></svg>
